X: 21332
M: 6/8
L: 1/8
K: D
V: 1 name="5"
[|\
f2f efe | dcB AGF | GAB cde | fgf f2e |\
f2f efe | dcB AGF | GAB cde | fge d3 H|]
f2f ecA | ^GBd cBA | ecA f^ga | edc c2B |\
^gfg aec | ded cde | f^ga edc | BA^G Aa"D.C."=g |]


